src/img/namber-1.svg

<svg width="215" height="176" viewBox="0 0 215 176" fill="none" xmlns="http://www.w3.org/2000/svg">
<path opacity="0.1" d="M67.6 175.36C46.64 175.36 30.16 167.44 18.16 151.6C6.32 135.6 0.4 114.4 0.4 88C0.4 61.6 6.32 40.48 18.16 24.64C30.16 8.63999 46.64 0.639989 67.6 0.639989C88.72 0.639989 105.2 8.63999 117.04 24.64C128.88 40.48 134.8 61.6 134.8 88C134.8 114.4 128.88 135.6 117.04 151.6C105.2 167.44 88.72 175.36 67.6 175.36ZM42.16 129.04C47.92 138.32 56.4 142.96 67.6 142.96C78.8 142.96 87.28 138.24 93.04 128.8C98.96 119.36 101.92 105.76 101.92 88C101.92 70.08 98.96 56.4 93.04 46.96C87.28 37.52 78.8 32.8 67.6 32.8C56.4 32.8 47.92 37.52 42.16 46.96C36.4 56.4 33.52 70.08 33.52 88C33.52 105.92 36.4 119.6 42.16 129.04ZM185.284 3.99999H214.084V172H180.964V39.04L149.284 47.92L141.124 19.6L185.284 3.99999Z" fill="white"/>
</svg>

<svg width="215" height="176" fill="none" xmlns="http://www.w3.org/2000/svg"><path opacity=".1" d="M67.6 175.36c-20.96 0-37.44-7.92-49.44-23.76C6.32 135.6.4 114.4.4 88s5.92-47.52 17.76-63.36c12-16 28.48-24 49.44-24 21.12 0 37.6 8 49.44 24C128.88 40.48 134.8 61.6 134.8 88s-5.92 47.6-17.76 63.6c-11.84 15.84-28.32 23.76-49.44 23.76zm-25.44-46.32c5.76 9.28 14.24 13.92 25.44 13.92 11.2 0 19.68-4.72 25.44-14.16 5.92-9.44 8.88-23.04 8.88-40.8 0-17.92-2.96-31.6-8.88-41.04C87.28 37.52 78.8 32.8 67.6 32.8c-11.2 0-19.68 4.72-25.44 14.16C36.4 56.4 33.52 70.08 33.52 88c0 17.92 2.88 31.6 8.64 41.04zM185.284 4h28.8v168h-33.12V39.04l-31.68 8.88-8.16-28.32L185.284 4z" fill="#fff"/></svg>
